lib/brands/icons/facebook-live.svg

<svg xmlns="http://www.w3.org/2000/svg" fill="none" aria-hidden="true" viewBox="0 0 48 48"><g id="facebook-live-Icon"><path id="Vector" fill="#1877F2" d="M14.0018 24.0118H12.0681V22.6949C12.0681 22.1448 12.3348 21.5947 13.2183 21.5947H14.0851V19.8944C14.0851 19.8944 13.285 19.7444 12.5349 19.7444C10.9346 19.7444 9.90106 20.7279 9.90106 22.4782V24.0118H8.1174V26.0289H9.90106V30.9131C6.55046 30.3963 4 27.4958 4 24.0118C4 20.1445 7.13389 17.0272 10.9846 17.0272C14.8353 17.0272 17.9692 20.1445 17.9692 24.0118C17.9692 27.4958 15.4187 30.3963 12.0681 30.9131V26.0289H13.6851L14.0018 24.0118ZM44 17.7822V30.2178C44 30.4178 43.9333 30.6178 43.7833 30.7512C43.6333 30.9012 43.4332 30.9846 43.2332 30.9846H19.7957C19.5956 30.9846 19.3956 30.9012 19.2622 30.7512C19.1122 30.6012 19.0289 30.4178 19.0289 30.2011V17.7822C19.0289 17.5822 19.1122 17.3821 19.2622 17.2488C19.3956 17.0988 19.5956 17.0154 19.7957 17.0154H43.2332C43.4332 17.0154 43.6333 17.0988 43.7833 17.2488C43.9333 17.3821 44 17.5822 44 17.7822V17.7822ZM27.8448 26.958H28.9116V21.0403H27.8448V26.958ZM22.9351 26.958H26.7024V26.0245H24.0019V21.0403H22.9351V26.958ZM31.9853 26.958H33.2022L35.2526 21.0403H34.1191L32.6521 25.7245H32.5688L31.0852 21.0403H29.9183L31.9853 26.958ZM39.9534 23.5281H37.3363V21.9611H40.1035V21.0443H36.2694V26.962H40.1035V26.0452H37.3363V24.3782H39.9534V23.5281Z"/></g></svg>

<svg xmlns="http://www.w3.org/2000/svg" fill="none" aria-hidden="true" viewBox="0 0 48 48"><path fill="#1877F2" d="M14.002 24.012h-1.934v-1.317c0-.55.267-1.1 1.15-1.1h.867v-1.7s-.8-.15-1.55-.15c-1.6 0-2.634.983-2.634 2.733v1.534H8.117v2.017h1.784v4.884A6.98 6.98 0 0 1 4 24.012a6.983 6.983 0 0 1 6.985-6.985 6.983 6.983 0 0 1 6.984 6.985 6.98 6.98 0 0 1-5.9 6.901V26.03h1.616l.317-2.017ZM44 17.782v12.436c0 .2-.067.4-.217.533a.785.785 0 0 1-.55.234H19.796a.72.72 0 0 1-.534-.234.756.756 0 0 1-.233-.55V17.782c0-.2.083-.4.233-.533a.72.72 0 0 1 .534-.234h23.437c.2 0 .4.084.55.234.15.133.217.333.217.533Zm-16.155 9.176h1.067V21.04h-1.067v5.918Zm-4.91 0h3.767v-.933h-2.7V21.04h-1.067v5.918Zm9.05 0h1.217l2.05-5.918H34.12l-1.467 4.684h-.083l-1.484-4.684h-1.167l2.067 5.918Zm7.968-3.43h-2.617v-1.567h2.767v-.917H36.27v5.918h3.834v-.917h-2.767v-1.667h2.617v-.85Z"/></svg>
